svgs/duotone/container-storage.svg

<svg xmlns="http://www.w3.org/2000/svg" viewBox="0 0 640 512"><!--! Font Awesome Pro 6.3.0 by @fontawesome - https://fontawesome.com License - https://fontawesome.com/license (Commercial License) Copyright 2023 Fonticons, Inc. --><defs><style>.fa-secondary{opacity:.4}</style></defs><path class="fa-primary" d="M592 416h-544C39.25 416 32 423.3 32 432l0 32c0 8.75 7.25 16 16 16h544c8.75 0 16-7.25 16-16v-32C608 423.3 600.8 416 592 416zM592 32h-544C39.25 32 31.1 39.25 31.1 48L32 80C32 88.75 39.25 96 48 96h544C600.8 96 608 88.75 608 80v-32C608 39.25 600.8 32 592 32z"/><path class="fa-secondary" d="M48 96v320h544V96H48zM112 368v-224h32v224H112zM208 368v-224h32v224H208zM304 368v-224h32v224H304zM400 368v-224h32v224H400zM496 368v-224h32v224H496z"/></svg>

<svg xmlns="http://www.w3.org/2000/svg" viewBox="0 0 640 512"><!-- Font Awesome Pro 6.0.0-alpha2 by @fontawesome - https://fontawesome.com License - https://fontawesome.com/license (Commercial License) --><defs><style>.fa-secondary{opacity:.4}</style></defs><path d="M48 96V416H592V96H48ZM112 368V144H144V368H112ZM208 368V144H240V368H208ZM304 368V144H336V368H304ZM400 368V144H432V368H400ZM496 368V144H528V368H496Z" class="fa-secondary"/><path d="M592 416H48C39.25 416 32 423.25 32 432V464C32 472.75 39.25 480 48 480H592C600.75 480 608 472.75 608 464V432C608 423.25 600.75 416 592 416ZM592 32H48C39.25 32 32 39.25 32 48V80C32 88.75 39.25 96 48 96H592C600.75 96 608 88.75 608 80V48C608 39.25 600.75 32 592 32Z" class="fa-primary"/></svg>
